public/resource/img/site/icon-api.svg

<svg version="1.1" xmlns="http://www.w3.org/2000/svg" xmlns:xlink="http://www.w3.org/1999/xlink" viewBox="0 0 32 32" stroke="none" stroke-width="0">
  <path d="M25.1666667,20.8323333 L27,20.8323333 L27,22.6656667 L5,22.6656667 L5,20.8323333 L6.83333333,20.8323333 L6.83333333,16.249 C6.83333333,15.7439167 7.24308333,15.3323333 7.75,15.3323333 L11.4166667,15.3323333 C11.9235833,15.3323333 12.3333333,15.7439167 12.3333333,16.249 L12.3333333,20.8323333 L13.25,20.8323333 L13.25,12.5823333 C13.25,12.07725 13.65975,11.6656667 14.1666667,11.6656667 L17.8333333,11.6656667 C18.34025,11.6656667 18.75,12.07725 18.75,12.5823333 L18.75,20.8323333 L19.6666667,20.8323333 L19.6666667,8.91566667 C19.6666667,8.41058333 20.0764167,7.999 20.5833333,7.999 L24.25,7.999 C24.7569167,7.999 25.1666667,8.41058333 25.1666667,8.91566667 L25.1666667,20.8323333 Z M8.66666667,20.8323333 L10.5,20.8323333 L10.5,17.1656667 L8.66666667,17.1656667 L8.66666667,20.8323333 Z M15.0833333,20.8323333 L16.9166667,20.8323333 L16.9166667,13.499 L15.0833333,13.499 L15.0833333,20.8323333 Z M21.5,20.8323333 L23.3333333,20.8323333 L23.3333333,9.83233333 L21.5,9.83233333 L21.5,20.8323333 Z" style="fill: black;">
  </path>
</svg>

<svg xmlns="http://www.w3.org/2000/svg" viewBox="0 0 32 32" stroke-width="0"><path d="M25.167 20.832H27v1.834H5v-1.834h1.833V16.25c0-.505.41-.917.917-.917h3.667c.507 0 .916.412.916.917v4.583h.917v-8.25c0-.505.41-.916.917-.916h3.666c.507 0 .917.411.917.916v8.25h.917V8.916c0-.505.41-.917.916-.917h3.667c.507 0 .917.412.917.917v11.916zm-16.5 0H10.5v-3.666H8.667v3.666zm6.416 0h1.834V13.5h-1.834v7.333zm6.417 0h1.833v-11H21.5v11z"/></svg>
